X:1
T:Our Land for Christ
T:Our Land for Christ
T:Charles Hutchinson Gabriel (1856-1932)
T:C. G. Clark
T:Public Domain Courtesy of the Cyber Hymnal™
T:Public Domain Courtesy of the Cyber Hymnal™
C:Charles Hutchinson Gabriel (1856-1932)
Z:Public Domain
Z:Courtesy of the Cyber Hymnal™
%%score ( 1 2 ) ( 3 4 )
L:1/8
Q:1/4=115
M:4/4
K:G
V:1 treble 
V:2 treble 
V:3 bass 
V:4 bass 
V:1
 [B,D]2 | [B,G]2 [B,G]2 [DG]2 [DA]2 | [DB]6 G2 | [Fc]2 [GB]2 [DA]2 [^CG]2 | [DA]6 [DA]2 | %5
w: 1.~“Our|land for Christ” we|sing; Our|hearts to Him we|bring, And|
w: 2.~“Our|land for Christ” we|sing; A-|way earth’s fol- lies|fling, And|
w: 3.~“Our|land for Christ” we|sing; Christ,|pro- phet, priest, and|king, Whom|
w: 4.~“Our|land for Christ” we|sing; Our|all to Him we|bring, With|
 ([^CA]2 [EG]2) ([DF]2 [CE]2) | D6 D2 | [DA]2 [D^G]2 [DA]2 [DB]2 | [Dc]6 [DA]2 | %9
w: trust * His *|Word; With|His dear cross in|view, Each|
w: seek * His *|love: Ours|be a heav’n- ly|prize, Un-|
w: saints * a- *|dore; Each|day some du- ty|done, Some|
w: one * ac- *|cord; Sin-|ners from set set|free, His|
 [DB]2 [DA]2 [DB]2 [Fc]2 | [Gd]6 [Gd]2 | [Ge]2 [Gd]2 [Fc]2 [GB]2 | (A2 [^CG]2) ([DF]2 [A,E]2) | %13
w: Christ- ian grace re-|new, And|make en- dea- vor|true * For *|
w: seen by mor- tal|eyes, In|man- sions in the|skies, * With *|
w: Christ- ian work be-|gun, Some|soul to Je- sus|won, * We *|
w: wond- rous grace shall|see, And|through e- ter- ni-|ty * Wor- *|
 (D2 [Ec]2) ([DB]2 [FA]2) | G6 ||"^Refrain" D2 | c4 B4 | c6 [Ad]2 | d4 ^c4 | d6 [Gd]2 | %20
w: Christ * our *|Lord.||||||
w: Him * a- *|bove.|Our|land for|Christ we|glad- ly|sing, Our|
w: ask * no *|more.||||||
w: ship * the *|Lord.||||||
 [Ge]2 [Gd]2 [Fc]2 [GB]2 | A2 [^CG]2 [DF]2 [A,E]2 | D2 [Ec]2 [DB]2 [FA]2 | G6 |] %24
w: ||||
w: hearts to Him, to|Him we bring, And|make en- dea- vor|firm|
w: ||||
w: ||||
V:2
 x2 | x8 | x6 G2 | x8 | x8 | x8 | D6 D2 | x8 | x8 | x8 | x8 | x8 | A2 x6 | D2 x6 | G6 || D2 | %16
 A2 A2 ^G2 G2 | A2 A2 F2 x2 | G2 G2 G2 G2 | G2 G2 G2 x2 | x8 | A2 x6 | D2 x6 | G6 |] %24
V:3
 G,2 | G,2 [G,,G,]2 [B,,G,]2 [D,F,]2 | G,6 [B,D]2 | [A,D]2 [G,D]2 [F,D]2 [E,A,]2 | %4
w: ~|~ ~ ~ ~|~ ~|~ ~ ~ ~|
 [D,F,]6 [D,F,]2 | (E,2 A,2) (A,2 G,2) | [D,F,]6 [D,F,]2 | [D,C]2 [D,B,]2 [D,C]2 [D,^G,]2 | %8
w: ~ ~|~ * ~ *|~ ~|~ ~ ~ ~|
 [D,A,]6 [F,A,]2 | G,2 [D,F,]2 F,2 [G,C]2 | [B,D]6 [B,D]2 | C2 [B,D]2 [A,D]2 [G,D]2 | %12
w: ~ ~|~ ~ ~ ~|~ ~|~ ~ ~ ~|
 ([F,D]2 [E,A,]2) ([D,A,]2 [C,F,]2) | G,4 (G,2 C2) | [G,,B,]6 || [D,D]2 | %16
w: ~ * ~ *|~ ~ *|~|Our|
 [D,D]2 [D,D]2 [D,D]2 [D,D]2 | [D,D]2 [F,D]2 [A,D]2 [F,C]2 | [G,B,]2 [G,B,]2 [G,^A,]2 [G,A,]2 | %19
w: land for Christ, Our|hearts we bring *||
 [G,B,]2 [B,D]2 [B,D]2 [B,D]2 | C2 [B,D]2 [A,D]2 [G,D]2 | [F,D]2 [E,A,]2 [D,A,]2 [C,F,]2 | %22
w: |||
 [B,,G,]2 [A,,G,]2 [D,G,]2 [D,C]2 | [G,,B,]6 |] %24
w: ||
V:4
 G,2 | G,2 x6 | G,6 x2 | x8 | x8 | A,,4 A,,4 | x8 | x8 | x8 | G,2 x6 | x8 | C2 x6 | x8 | %13
 (B,,2 A,,2) D,4 | x6 || x2 | x8 | x8 | x8 | x8 | C2 x6 | x8 | x8 | x6 |] %24

